shader_type spatial;
//thank you for sunshine

void vertex() {
	// Called for every vertex the material is visible on.
}

void fragment() {
		ALBEDO = vec3(1,1,0.10);
		RIM = 3.0;
	// Called for every pixel the material is visible on.
}

//void light() {
	// Called for every pixel for every light affecting the material.
	// Uncomment to replace the default light processing function with this one.
//}
